X:069 
T:Glen Road to Carrick  (reel) 
B:CRE3.182 (Bothar an Ghleanna go dti an Charraig)
F:file ID: cre.3/069glen_r
R:reel
L:1/8
Q:180
M:C
K:G
"D modal"
dc|| ADD2 AGFE|ADD2 AGAd|ADD2 AGFA|GECE G2Bd|
"5"ADD2 AGFE|ADD2 BGBd|ADD2 AGFA|GECE GcGE||
"9"D2dA F2AF|D2dF ABAF|D2dA F2AF|GECE GcGE|
"13"D2dA F2AF|Ddcd A2Bc|(3dcB cA BGAF|GECE G2||
eg|:"17"fdcd Addg|fdfg abag|fddf Adfd|ecef gbag:|
"21"(3fgf ec dABG|FADF A2Bc|(3dcB cA BGAF|GECE G2eg|
"25"fdec dABG|FADF A2Bc|dBcA BGAF|GECE GABc||
"29"dDD2 AD (3FED|dDD2 A2Bc|dDD2 ADFA|GECE G2Bc|
"33"dDD2 AD (3FED|dDD2 A2Bc|(3dcB cA BGAF|GECE GABd||

%%%

